X: 21225
T: Keel Row, The
R: strathspey
M: 4/4
K: Gmajor
A|B<GB>G c2 A>c|B<GB>B A>FD>c|B<GB>B d2 d>c|A<FA>F G2 (3edc|
B<GB>G c>BA>c|B<GB>B A>F D2|B<GB>G d2 d>A|A<FA>F G>FG>A||
B<dd>d e2 d>c|B<GB>B A>FD>A|B<dd>d e2 d>c|B<GA>F G2 G>A|
(3Bcd d>d (3efe d>c|B<GG>B A>F D2|B<dd>d e<AB>d|(3Bcd e>f (3gag e>d||

